packages/core/assets/Icons/battery_charging.svg

<svg viewBox="0 0 20 20" fill="none" xmlns="http://www.w3.org/2000/svg">
<path d="M6.66683 18.3334C6.43072 18.3334 6.2328 18.2535 6.07308 18.0938C5.91336 17.934 5.8335 17.7361 5.8335 17.5V4.16669C5.8335 3.93058 5.91336 3.73266 6.07308 3.57294C6.2328 3.41321 6.43072 3.33335 6.66683 3.33335H8.3335V2.50002C8.3335 2.26391 8.41336 2.06599 8.57308 1.90627C8.7328 1.74655 8.93072 1.66669 9.16683 1.66669H10.8335C11.0696 1.66669 11.2675 1.74655 11.4272 1.90627C11.587 2.06599 11.6668 2.26391 11.6668 2.50002V3.33335H13.3335C13.5696 3.33335 13.7675 3.41321 13.9272 3.57294C14.087 3.73266 14.1668 3.93058 14.1668 4.16669V9.16669C14.1668 9.4028 14.087 9.60071 13.9272 9.76044C13.7675 9.92016 13.5696 10 13.3335 10C13.0974 10 12.8995 9.92016 12.7397 9.76044C12.58 9.60071 12.5002 9.4028 12.5002 9.16669V5.00002H7.50016V11.6667H9.25016C9.50016 11.6667 9.68072 11.7778 9.79183 12C9.90294 12.2222 9.88905 12.4445 9.75016 12.6667C9.55572 13.0139 9.40989 13.382 9.31266 13.7709C9.21544 14.1597 9.16683 14.5695 9.16683 15C9.16683 15.4167 9.21544 15.8195 9.31266 16.2084C9.40989 16.5972 9.55572 16.9722 9.75016 17.3334C9.86127 17.5695 9.86127 17.7952 9.75016 18.0104C9.63905 18.2257 9.46544 18.3334 9.22933 18.3334H6.66683ZM13.7502 15.8334H12.4585C12.2918 15.8334 12.1703 15.7604 12.0939 15.6146C12.0175 15.4688 12.0279 15.3264 12.1252 15.1875L14.2085 12.2084C14.2779 12.125 14.3578 12.0972 14.4481 12.125C14.5384 12.1528 14.5835 12.2222 14.5835 12.3334V14.1667H15.8752C16.0418 14.1667 16.1634 14.2396 16.2397 14.3854C16.3161 14.5313 16.3057 14.6736 16.2085 14.8125L14.1252 17.7917C14.0557 17.875 13.9759 17.9028 13.8856 17.875C13.7953 17.8472 13.7502 17.7778 13.7502 17.6667V15.8334Z" fill="currentColor"/>
</svg>

<svg xmlns="http://www.w3.org/2000/svg" width="20" height="20" fill="none" viewBox="0 0 20 20">
  <path fill="#201F1F" d="M6.667 18.333a.806.806 0 0 1-.594-.24.807.807 0 0 1-.24-.593V4.167c0-.236.08-.434.24-.594.16-.16.358-.24.594-.24h1.667V2.5c0-.236.08-.434.24-.594a.803.803 0 0 1 .593-.24h1.667c.236 0 .434.08.593.24.16.16.24.358.24.594v.833h1.667c.236 0 .434.08.593.24.16.16.24.358.24.594v5c0 .236-.08.434-.24.593a.806.806 0 0 1-.593.24.807.807 0 0 1-.594-.24.806.806 0 0 1-.24-.593V5h-5v6.667h1.75c.25 0 .43.11.542.333a.643.643 0 0 1-.042.667c-.194.347-.34.715-.437 1.104A5.05 5.05 0 0 0 9.167 15a4.846 4.846 0 0 0 .583 2.333.729.729 0 0 1 0 .677.55.55 0 0 1-.52.323H6.666Zm7.083-2.5h-1.29a.384.384 0 0 1-.365-.218.384.384 0 0 1 .031-.428l2.084-2.979c.069-.083.149-.11.24-.083.09.028.135.097.135.208v1.834h1.291c.167 0 .288.073.365.218a.385.385 0 0 1-.031.428l-2.084 2.979c-.07.083-.15.11-.24.083-.09-.028-.135-.097-.135-.208v-1.834Z"/>
</svg>
